svgs/duotone/keyboard-down.svg

<svg xmlns="http://www.w3.org/2000/svg" viewBox="0 0 576 512"><!--! Font Awesome Pro 6.3.0 by @fontawesome - https://fontawesome.com License - https://fontawesome.com/license (Commercial License) Copyright 2023 Fonticons, Inc. --><defs><style>.fa-secondary{opacity:.4}</style></defs><path class="fa-primary" d="M268 128h40c6.625 0 12-5.375 12-12v-40c0-6.625-5.375-12-12-12h-40c-6.625 0-12 5.375-12 12v40C256 122.6 261.4 128 268 128zM172 128h40c6.625 0 12-5.375 12-12v-40c0-6.625-5.375-12-12-12h-40c-6.625 0-12 5.375-12 12v40C160 122.6 165.4 128 172 128zM116 160h-40c-6.625 0-12 5.375-12 12v40c0 6.625 5.375 12 12 12h40c6.625 0 12-5.375 12-12v-40C128 165.4 122.6 160 116 160zM116 64h-40c-6.625 0-12 5.375-12 12v40c0 6.625 5.375 12 12 12h40c6.625 0 12-5.375 12-12v-40C128 69.38 122.6 64 116 64zM500 64h-40c-6.625 0-12 5.375-12 12v40c0 6.625 5.375 12 12 12h40c6.625 0 12-5.375 12-12v-40C512 69.38 506.6 64 500 64zM500 160h-40c-6.625 0-12 5.375-12 12v40c0 6.625 5.375 12 12 12h40c6.625 0 12-5.375 12-12v-40C512 165.4 506.6 160 500 160zM404 64h-40c-6.625 0-12 5.375-12 12v40c0 6.625 5.375 12 12 12h40c6.625 0 12-5.375 12-12v-40C416 69.38 410.6 64 404 64zM392 351.9h-208c-9.549 0-18.19 5.66-22 14.42c-3.814 8.756-2.079 18.97 4.405 25.96l104 112.1c9.498 10.24 25.69 10.24 35.19 0l104-112.1c6.484-6.988 8.219-17.2 4.409-25.96C410.2 357.6 401.5 351.9 392 351.9z"/><path class="fa-secondary" d="M512 .0001H64c-35.35 0-64 28.65-64 64v160c0 35.35 28.65 64 64 64h448c35.35 0 64-28.65 64-64v-160C576 28.65 547.3 .0001 512 .0001zM256 76c0-6.625 5.375-12 12-12h40c6.625 0 12 5.375 12 12v40c0 6.625-5.375 12-12 12h-40C261.4 128 256 122.6 256 116V76zM160 76c0-6.625 5.375-12 12-12h40c6.625 0 12 5.375 12 12v40c0 6.625-5.375 12-12 12h-40C165.4 128 160 122.6 160 116V76zM128 212c0 6.625-5.375 12-12 12h-40c-6.625 0-12-5.375-12-12v-40c0-6.625 5.375-12 12-12h40c6.625 0 12 5.375 12 12V212zM128 116c0 6.625-5.375 12-12 12h-40C69.38 128 64 122.6 64 116v-40c0-6.625 5.375-12 12-12h40c6.625 0 12 5.375 12 12V116zM416 212c0 6.625-5.375 12-12 12h-232c-6.625 0-12-5.375-12-12v-40c0-6.625 5.375-12 12-12h232c6.625 0 12 5.375 12 12V212zM416 116c0 6.625-5.375 12-12 12h-40c-6.625 0-12-5.375-12-12v-40c0-6.625 5.375-12 12-12h40c6.625 0 12 5.375 12 12V116zM512 212c0 6.625-5.375 12-12 12h-40c-6.625 0-12-5.375-12-12v-40c0-6.625 5.375-12 12-12h40c6.625 0 12 5.375 12 12V212zM512 116c0 6.625-5.375 12-12 12h-40c-6.625 0-12-5.375-12-12v-40c0-6.625 5.375-12 12-12h40c6.625 0 12 5.375 12 12V116z"/></svg>

<svg xmlns="http://www.w3.org/2000/svg" viewBox="0 0 576 512"><!-- Font Awesome Pro 6.0.0-alpha2 by @fontawesome - https://fontawesome.com License - https://fontawesome.com/license (Commercial License) --><defs><style>.fa-secondary{opacity:.4}</style></defs><path d="M512 0H64C28.654 0 0 28.652 0 64V224C0 259.346 28.654 288 64 288H512C547.348 288 576 259.346 576 224V64C576 28.652 547.348 0 512 0ZM256 76C256 69.375 261.375 64 268 64H308C314.625 64 320 69.375 320 76V116C320 122.625 314.625 128 308 128H268C261.375 128 256 122.625 256 116V76ZM160 76C160 69.375 165.375 64 172 64H212C218.625 64 224 69.375 224 76V116C224 122.625 218.625 128 212 128H172C165.375 128 160 122.625 160 116V76ZM128 212C128 218.625 122.625 224 116 224H76C69.375 224 64 218.625 64 212V172C64 165.375 69.375 160 76 160H116C122.625 160 128 165.375 128 172V212ZM128 116C128 122.625 122.625 128 116 128H76C69.375 128 64 122.625 64 116V76C64 69.375 69.375 64 76 64H116C122.625 64 128 69.375 128 76V116ZM416 212C416 218.625 410.625 224 404 224H172C165.375 224 160 218.625 160 212V172C160 165.375 165.375 160 172 160H404C410.625 160 416 165.375 416 172V212ZM416 116C416 122.625 410.625 128 404 128H364C357.375 128 352 122.625 352 116V76C352 69.375 357.375 64 364 64H404C410.625 64 416 69.375 416 76V116ZM512 212C512 218.625 506.625 224 500 224H460C453.375 224 448 218.625 448 212V172C448 165.375 453.375 160 460 160H500C506.625 160 512 165.375 512 172V212ZM512 116C512 122.625 506.625 128 500 128H460C453.375 128 448 122.625 448 116V76C448 69.375 453.375 64 460 64H500C506.625 64 512 69.375 512 76V116Z" class="fa-secondary"/><path d="M268 128H308C314.625 128 320 122.625 320 116V76C320 69.375 314.625 64 308 64H268C261.375 64 256 69.375 256 76V116C256 122.625 261.375 128 268 128ZM172 128H212C218.625 128 224 122.625 224 116V76C224 69.375 218.625 64 212 64H172C165.375 64 160 69.375 160 76V116C160 122.625 165.375 128 172 128ZM116 160H76C69.375 160 64 165.375 64 172V212C64 218.625 69.375 224 76 224H116C122.625 224 128 218.625 128 212V172C128 165.375 122.625 160 116 160ZM116 64H76C69.375 64 64 69.375 64 76V116C64 122.625 69.375 128 76 128H116C122.625 128 128 122.625 128 116V76C128 69.375 122.625 64 116 64ZM500 64H460C453.375 64 448 69.375 448 76V116C448 122.625 453.375 128 460 128H500C506.625 128 512 122.625 512 116V76C512 69.375 506.625 64 500 64ZM500 160H460C453.375 160 448 165.375 448 172V212C448 218.625 453.375 224 460 224H500C506.625 224 512 218.625 512 212V172C512 165.375 506.625 160 500 160ZM404 64H364C357.375 64 352 69.375 352 76V116C352 122.625 357.375 128 364 128H404C410.625 128 416 122.625 416 116V76C416 69.375 410.625 64 404 64ZM392 351.895H184C174.451 351.895 165.811 357.555 162 366.311C158.186 375.066 159.92 385.26 166.404 392.248L270.406 504.322C279.904 514.559 296.096 514.559 305.594 504.322L409.596 392.248C416.08 385.26 417.814 375.066 414.004 366.311C410.189 357.555 401.547 351.895 392 351.895Z" class="fa-primary"/></svg>
